flutter/assets/dots.svg

<svg xmlns="http://www.w3.org/2000/svg" width="32" height="32" style="isolation:isolate" viewBox="105.516 106.603 32 32"><path fill="none" d="M105.516 106.603h32v32h-32v-32Z"/><path fill-rule="evenodd" d="M118.954 115.165a2.563 2.563 0 0 1 2.562-2.562 2.563 2.563 0 0 1 0 5.124 2.563 2.563 0 0 1-2.562-2.562Zm0 7.438a2.563 2.563 0 0 1 2.562-2.562 2.563 2.563 0 0 1 0 5.124 2.563 2.563 0 0 1-2.562-2.562Zm0 7.438a2.563 2.563 0 0 1 2.562-2.562 2.563 2.563 0 0 1 0 5.124 2.563 2.563 0 0 1-2.562-2.562Z"/></svg>9

<?xml version="1.0" encoding="UTF-8" standalone="no"?>
<svg xmlns="http://www.w3.org/2000/svg" xmlns:xlink="http://www.w3.org/1999/xlink" style="isolation:isolate" viewBox="105.516 106.603 32 32" width="32" height="32"><g><path d=" M 105.516 106.603 L 137.516 106.603 L 137.516 138.603 L 105.516 138.603 L 105.516 106.603 Z " fill="none"/><path d=" M 118.954 115.165 C 118.954 113.751 120.102 112.603 121.516 112.603 C 122.929 112.603 124.077 113.751 124.077 115.165 C 124.077 116.579 122.929 117.727 121.516 117.727 C 120.102 117.727 118.954 116.579 118.954 115.165 L 118.954 115.165 Z  M 118.954 122.603 C 118.954 121.189 120.102 120.041 121.516 120.041 C 122.929 120.041 124.077 121.189 124.077 122.603 C 124.077 124.017 122.929 125.165 121.516 125.165 C 120.102 125.165 118.954 124.017 118.954 122.603 L 118.954 122.603 Z  M 118.954 130.041 C 118.954 128.627 120.102 127.479 121.516 127.479 C 122.929 127.479 124.077 128.627 124.077 130.041 C 124.077 131.455 122.929 132.603 121.516 132.603 C 120.102 132.603 118.954 131.455 118.954 130.041 Z " fill-rule="evenodd" fill="rgb(0,0,0)"/></g></svg>
